src/assets/images/2018/script-18-logo.svg

<svg width="796px" height="175px" viewBox="0 0 796 175" version="1.1" xmlns="http://www.w3.org/2000/svg" xmlns:xlink="http://www.w3.org/1999/xlink">
    <defs>
        <radialGradient cx="0%" cy="14.525%" fx="0%" fy="14.525%" r="78.98%" gradientTransform="translate(0.000000,0.145250),scale(1.000000,0.860432),translate(-0.000000,-0.145250)" id="radialGradient-1">
            <stop stop-color="#F7DF1E" offset="0%"></stop>
            <stop stop-color="#F7DF00" offset="100%"></stop>
        </radialGradient>
    </defs>
    <g id="Page-1" stroke="none" stroke-width="1" fill="none" fill-rule="evenodd">
        <g id="Group">
            <g id="logo-general">
                <path d="M211.448,138.296 C206.744,138.296 202.472,137.768 198.632,136.712 C194.792,135.656 191.336,134.216 188.264,132.392 C185.192,130.568 182.528,128.384 180.272,125.84 C178.016,123.296 176.168,120.584 174.728,117.704 L191.144,108.2 C193.352,111.752 195.968,114.68 198.992,116.984 C202.016,119.288 206.024,120.44 211.016,120.44 C215.24,120.44 218.576,119.504 221.024,117.632 C223.472,115.76 224.696,113.384 224.696,110.504 C224.696,107.048 223.4,104.456 220.808,102.728 C218.216,101 214.616,99.128 210.008,97.112 L204.968,94.952 C201.32,93.416 198.008,91.736 195.032,89.912 C192.056,88.088 189.512,85.976 187.4,83.576 C185.288,81.176 183.656,78.44 182.504,75.368 C181.352,72.296 180.776,68.696 180.776,64.568 C180.776,60.824 181.472,57.32 182.864,54.056 C184.256,50.792 186.224,47.96 188.768,45.56 C191.312,43.16 194.408,41.288 198.056,39.944 C201.704,38.6 205.784,37.928 210.296,37.928 C216.728,37.928 222.272,39.152 226.928,41.6 C231.584,44.048 235.592,48.2 238.952,54.056 L223.256,64.136 C221.528,61.064 219.656,58.856 217.64,57.512 C215.624,56.168 213.176,55.496 210.296,55.496 C207.32,55.496 204.968,56.312 203.24,57.944 C201.512,59.576 200.648,61.64 200.648,64.136 C200.648,67.208 201.632,69.536 203.6,71.12 C205.568,72.704 208.712,74.456 213.032,76.376 L218.072,78.536 C222.392,80.36 226.208,82.256 229.52,84.224 C232.832,86.192 235.616,88.4 237.872,90.848 C240.115941,93.2765942 241.875455,96.111367 243.056,99.2 C244.256,102.32 244.856,105.992 244.856,110.216 C244.856,114.728 244.016,118.736 242.336,122.24 C240.656,125.744 238.328,128.696 235.352,131.096 C232.376,133.496 228.848,135.296 224.768,136.496 C220.688,137.696 216.248,138.296 211.448,138.296 L211.448,138.296 Z M307.64,138.296 C300.632,138.296 294.056,137.024 287.912,134.48 C281.768,131.936 276.44,128.432 271.928,123.968 C267.416,119.504 263.84,114.2 261.2,108.056 C258.56,101.912 257.24,95.24 257.24,88.04 C257.24,80.84 258.56,74.168 261.2,68.024 C263.84,61.88 267.416,56.576 271.928,52.112 C276.44,47.648 281.768,44.168 287.912,41.672 C294.056,39.176 300.632,37.928 307.64,37.928 C316.568,37.928 324.224,39.536 330.608,42.752 C336.992,45.968 342.392,51.032 346.808,57.944 L331.4,68.888 C329.096,65.144 325.976,62.072 322.04,59.672 C318.104,57.272 313.304,56.072 307.64,56.072 C303.224,56.072 299.192,56.888 295.544,58.52 C291.896,60.152 288.776,62.384 286.184,65.216 C283.592,68.048 281.576,71.408 280.136,75.296 C278.696,79.184 277.976,83.432 277.976,88.04 C277.976,92.648 278.696,96.92 280.136,100.856 C281.576,104.792 283.592,108.2 286.184,111.08 C288.776,113.96 291.896,116.216 295.544,117.848 C299.192,119.48 303.224,120.296 307.64,120.296 C313.976,120.296 319.064,118.952 322.904,116.264 C326.744,113.576 330.056,110.12 332.84,105.896 L348.536,116.696 C344.216,123.32 338.696,128.576 331.976,132.464 C325.256,136.352 317.144,138.296 307.64,138.296 L307.64,138.296 Z M390.008,95.096 C398.264,95.096 404.264,93.656 408.008,90.776 C411.752,87.896 413.624,83 413.624,76.088 C413.624,69.176 411.728,64.232 407.936,61.256 C404.144,58.28 398.168,56.792 390.008,56.792 L383.672,56.792 L383.672,95.096 L390.008,95.096 Z M435.8,137 L412.472,137 L396.344,112.232 C394.424,112.52 392.504,112.664 390.584,112.664 L383.672,112.664 L383.672,137 L363.512,137 L363.512,39.08 L390.584,39.08 C404.312,39.08 415.04,42.248 422.768,48.584 C430.496,54.92 434.36,64.088 434.36,76.088 C434.36,83.768 432.728,90.056 429.464,94.952 C426.2,99.848 421.544,103.688 415.496,106.472 L435.8,137 Z M452.36,39.08 L472.52,39.08 L472.52,137 L452.36,137 L452.36,39.08 Z M519.752,96.968 C528.008,96.968 534.008,95.312 537.752,92 C541.496,88.688 543.368,83.672 543.368,76.952 C543.368,70.136 541.472,65.072 537.68,61.76 C533.888,58.448 527.912,56.792 519.752,56.792 L513.416,56.792 L513.416,96.968 L519.752,96.968 L519.752,96.968 Z M493.256,39.08 L520.328,39.08 C527.144,39.08 533.264,39.944 538.688,41.672 C544.112,43.4 548.696,45.896 552.44,49.16 C556.184,52.424 559.064,56.408 561.08,61.112 C563.096,65.816 564.104,71.096 564.104,76.952 C564.104,82.904 563.096,88.208 561.08,92.864 C559.064,97.52 556.184,101.456 552.44,104.672 C548.696,107.888 544.112,110.36 538.688,112.088 C533.264,113.816 527.144,114.68 520.328,114.68 L513.416,114.68 L513.416,137 L493.256,137 L493.256,39.08 L493.256,39.08 Z M600.68,56.792 L572.744,56.792 L572.744,39.08 L648.776,39.08 L648.776,56.792 L620.84,56.792 L620.84,137 L600.68,137 L600.68,56.792 L600.68,56.792 Z" id="Shape" fill="#F7DF1E"></path>
                <polygon id="x" fill="url(#radialGradient-1)" points="74.176 0 150 45.742 150 131.065 74.176 174.331 0 131.065 0 39.98"></polygon>
            </g>
            <path d="M682.504,75.96 L666.952,75.96 L666.952,59.832 L702.232,59.832 L702.232,118.872 L717.64,118.872 L717.64,135 L665.8,135 L665.8,118.872 L682.504,118.872 L682.504,75.96 Z M763,119.592 C766.072015,119.592 768.495991,118.60801 770.272,116.64 C772.048009,114.67199 772.936,112.296014 772.936,109.512 C772.936,106.727986 772.048009,104.35201 770.272,102.384 C768.495991,100.41599 766.072015,99.432 763,99.432 C759.927985,99.432 757.504009,100.41599 755.728,102.384 C753.951991,104.35201 753.064,106.727986 753.064,109.512 C753.064,112.296014 753.951991,114.67199 755.728,116.64 C757.504009,118.60801 759.927985,119.592 763,119.592 Z M763,85.32 C764.632008,85.32 766.047994,84.816005 767.248,83.808 C768.448006,82.799995 769.048,81.4320086 769.048,79.704 C769.048,77.9759914 768.448006,76.608005 767.248,75.6 C766.047994,74.591995 764.632008,74.088 763,74.088 C761.367992,74.088 759.952006,74.591995 758.752,75.6 C757.551994,76.608005 756.952,77.9759914 756.952,79.704 C756.952,81.4320086 757.551994,82.799995 758.752,83.808 C759.952006,84.816005 761.367992,85.32 763,85.32 Z M747.16,90.936 C744.951989,89.5919933 743.056008,87.8400108 741.472,85.68 C739.887992,83.5199892 739.096,80.7600168 739.096,77.4 C739.096,74.6159861 739.743994,72.0720115 741.04,69.768 C742.336006,67.4639885 744.063989,65.4720084 746.224,63.792 C748.384011,62.1119916 750.927985,60.8160046 753.856,59.904 C756.784015,58.9919954 759.831984,58.536 763,58.536 C766.168016,58.536 769.191986,58.9919954 772.072,59.904 C774.952014,60.8160046 777.471989,62.1119916 779.632,63.792 C781.792011,65.4720084 783.519994,67.4639885 784.816,69.768 C786.112006,72.0720115 786.76,74.6159861 786.76,77.4 C786.76,80.7600168 785.992008,83.5199892 784.456,85.68 C782.919992,87.8400108 781.048011,89.5919933 778.84,90.936 C782.87202,92.5680082 786.255986,94.9679842 788.992,98.136 C791.728014,101.304016 793.096,105.431975 793.096,110.52 C793.096,114.264019 792.376007,117.695984 790.936,120.816 C789.495993,123.936016 787.480013,126.647988 784.888,128.952 C782.295987,131.256012 779.152018,133.055994 775.456,134.352 C771.759982,135.648006 767.608023,136.296 763,136.296 C758.391977,136.296 754.240018,135.648006 750.544,134.352 C746.847982,133.055994 743.704013,131.256012 741.112,128.952 C738.519987,126.647988 736.528007,123.936016 735.136,120.816 C733.743993,117.695984 733.048,114.264019 733.048,110.52 C733.048,105.431975 734.391987,101.304016 737.08,98.136 C739.768013,94.9679842 743.12798,92.5680082 747.16,90.936 Z" id="18" stroke="#F8E81C" stroke-width="4" fill-opacity="0" fill="#F8E81C"></path>
        </g>
    </g>
</svg>

<svg width="796" height="175" viewBox="0 0 796 175" xmlns="http://www.w3.org/2000/svg"><defs><radialGradient cx="0%" cy="14.525%" fx="0%" fy="14.525%" r="78.98%" gradientTransform="matrix(1 0 0 .86 0 .02)" id="a"><stop stop-color="#F7DF1E" offset="0%"/><stop stop-color="#F7DF00" offset="100%"/></radialGradient></defs><g fill="none" fill-rule="evenodd"><path d="M211.448 138.296c-4.704 0-8.976-.528-12.816-1.584s-7.296-2.496-10.368-4.32c-3.072-1.824-5.736-4.008-7.992-6.552-2.256-2.544-4.104-5.256-5.544-8.136l16.416-9.504c2.208 3.552 4.824 6.48 7.848 8.784 3.024 2.304 7.032 3.456 12.024 3.456 4.224 0 7.56-.936 10.008-2.808 2.448-1.872 3.672-4.248 3.672-7.128 0-3.456-1.296-6.048-3.888-7.776-2.592-1.728-6.192-3.6-10.8-5.616l-5.04-2.16c-3.648-1.536-6.96-3.216-9.936-5.04-2.976-1.824-5.52-3.936-7.632-6.336-2.112-2.4-3.744-5.136-4.896-8.208-1.152-3.072-1.728-6.672-1.728-10.8 0-3.744.696-7.248 2.088-10.512 1.392-3.264 3.36-6.096 5.904-8.496 2.544-2.4 5.64-4.272 9.288-5.616 3.648-1.344 7.728-2.016 12.24-2.016 6.432 0 11.976 1.224 16.632 3.672 4.656 2.448 8.664 6.6 12.024 12.456l-15.696 10.08c-1.728-3.072-3.6-5.28-5.616-6.624-2.016-1.344-4.464-2.016-7.344-2.016-2.976 0-5.328.816-7.056 2.448-1.728 1.632-2.592 3.696-2.592 6.192 0 3.072.984 5.4 2.952 6.984 1.968 1.584 5.112 3.336 9.432 5.256l5.04 2.16c4.32 1.824 8.136 3.72 11.448 5.688 3.312 1.968 6.096 4.176 8.352 6.624 2.244 2.43 4.003 5.263 5.184 8.352 1.2 3.12 1.8 6.792 1.8 11.016 0 4.512-.84 8.52-2.52 12.024-1.68 3.504-4.008 6.456-6.984 8.856-2.976 2.4-6.504 4.2-10.584 5.4-4.08 1.2-8.52 1.8-13.32 1.8zm96.192 0c-7.008 0-13.584-1.272-19.728-3.816-6.144-2.544-11.472-6.048-15.984-10.512-4.512-4.464-8.088-9.768-10.728-15.912-2.64-6.144-3.96-12.816-3.96-20.016 0-7.2 1.32-13.872 3.96-20.016 2.64-6.144 6.216-11.448 10.728-15.912s9.84-7.944 15.984-10.44c6.144-2.496 12.72-3.744 19.728-3.744 8.928 0 16.584 1.608 22.968 4.824 6.384 3.216 11.784 8.28 16.2 15.192L331.4 68.888c-2.304-3.744-5.424-6.816-9.36-9.216-3.936-2.4-8.736-3.6-14.4-3.6-4.416 0-8.448.816-12.096 2.448-3.648 1.632-6.768 3.864-9.36 6.696-2.592 2.832-4.608 6.192-6.048 10.08-1.44 3.888-2.16 8.136-2.16 12.744 0 4.608.72 8.88 2.16 12.816 1.44 3.936 3.456 7.344 6.048 10.224s5.712 5.136 9.36 6.768c3.648 1.632 7.68 2.448 12.096 2.448 6.336 0 11.424-1.344 15.264-4.032 3.84-2.688 7.152-6.144 9.936-10.368l15.696 10.8c-4.32 6.624-9.84 11.88-16.56 15.768-6.72 3.888-14.832 5.832-24.336 5.832zm82.368-43.2c8.256 0 14.256-1.44 18-4.32 3.744-2.88 5.616-7.776 5.616-14.688 0-6.912-1.896-11.856-5.688-14.832-3.792-2.976-9.768-4.464-17.928-4.464h-6.336v38.304h6.336zM435.8 137h-23.328l-16.128-24.768c-1.92.288-3.84.432-5.76.432h-6.912V137h-20.16V39.08h27.072c13.728 0 24.456 3.168 32.184 9.504 7.728 6.336 11.592 15.504 11.592 27.504 0 7.68-1.632 13.968-4.896 18.864-3.264 4.896-7.92 8.736-13.968 11.52L435.8 137zm16.56-97.92h20.16V137h-20.16V39.08zm67.392 57.888c8.256 0 14.256-1.656 18-4.968 3.744-3.312 5.616-8.328 5.616-15.048 0-6.816-1.896-11.88-5.688-15.192-3.792-3.312-9.768-4.968-17.928-4.968h-6.336v40.176h6.336zM493.256 39.08h27.072c6.816 0 12.936.864 18.36 2.592 5.424 1.728 10.008 4.224 13.752 7.488 3.744 3.264 6.624 7.248 8.64 11.952 2.016 4.704 3.024 9.984 3.024 15.84 0 5.952-1.008 11.256-3.024 15.912-2.016 4.656-4.896 8.592-8.64 11.808-3.744 3.216-8.328 5.688-13.752 7.416-5.424 1.728-11.544 2.592-18.36 2.592h-6.912V137h-20.16V39.08zM600.68 56.792h-27.936V39.08h76.032v17.712H620.84V137h-20.16V56.792z" fill="#F7DF1E"/><path fill="url(#a)" d="M74.176 0L150 45.742v85.323L74.176 174.33 0 131.066V39.98"/><path d="M682.504 75.96h-15.552V59.832h35.28v59.04h15.408V135H665.8v-16.128h16.704V75.96zM763 119.592c3.072 0 5.496-.984 7.272-2.952 1.776-1.968 2.664-4.344 2.664-7.128s-.888-5.16-2.664-7.128c-1.776-1.968-4.2-2.952-7.272-2.952s-5.496.984-7.272 2.952c-1.776 1.968-2.664 4.344-2.664 7.128s.888 5.16 2.664 7.128c1.776 1.968 4.2 2.952 7.272 2.952zm0-34.272c1.632 0 3.048-.504 4.248-1.512 1.2-1.008 1.8-2.376 1.8-4.104 0-1.728-.6-3.096-1.8-4.104-1.2-1.008-2.616-1.512-4.248-1.512-1.632 0-3.048.504-4.248 1.512-1.2 1.008-1.8 2.376-1.8 4.104 0 1.728.6 3.096 1.8 4.104 1.2 1.008 2.616 1.512 4.248 1.512zm-15.84 5.616c-2.208-1.344-4.104-3.096-5.688-5.256-1.584-2.16-2.376-4.92-2.376-8.28 0-2.784.648-5.328 1.944-7.632 1.296-2.304 3.024-4.296 5.184-5.976 2.16-1.68 4.704-2.976 7.632-3.888 2.928-.912 5.976-1.368 9.144-1.368s6.192.456 9.072 1.368c2.88.912 5.4 2.208 7.56 3.888 2.16 1.68 3.888 3.672 5.184 5.976 1.296 2.304 1.944 4.848 1.944 7.632 0 3.36-.768 6.12-2.304 8.28-1.536 2.16-3.408 3.912-5.616 5.256 4.032 1.632 7.416 4.032 10.152 7.2 2.736 3.168 4.104 7.296 4.104 12.384 0 3.744-.72 7.176-2.16 10.296-1.44 3.12-3.456 5.832-6.048 8.136-2.592 2.304-5.736 4.104-9.432 5.4-3.696 1.296-7.848 1.944-12.456 1.944s-8.76-.648-12.456-1.944c-3.696-1.296-6.84-3.096-9.432-5.4-2.592-2.304-4.584-5.016-5.976-8.136-1.392-3.12-2.088-6.552-2.088-10.296 0-5.088 1.344-9.216 4.032-12.384 2.688-3.168 6.048-5.568 10.08-7.2z" stroke="#F8E81C" stroke-width="4" fill="none"/></g></svg>
